img/step-illustration-screen-with-boy.svg

<svg width="300" height="233" fill="none" xmlns="http://www.w3.org/2000/svg"><g clip-path="url(#clip0)"><path opacity=".8" d="M273.693 221.077H15.5216V54.0952a5.2664 5.2664 0 015.2661-5.2661H268.427c1.397 0 2.736.5548 3.724 1.5424a5.2681 5.2681 0 011.542 3.7237V221.077z" fill="url(#paint0_linear)"/><path d="M24.3306 51.8621H264.867c1.397 0 2.736.5548 3.724 1.5424a5.2679 5.2679 0 011.542 3.7236V221.077H19.0779V57.1315a5.2663 5.2663 0 015.2527-5.2694z" fill="#fff"/><path d="M262.051 61.7075H27.1603V215.774H262.051V61.7075z" fill="#F5F5F5"/><path opacity=".8" d="M261.954 69.1868H28.0602V207.798H261.954V69.1868z" fill="#E0E0E0"/><path d="M261.954 61.821H28.0602v7.3659H261.954V61.821z" fill="#F5F5F5"/><path d="M33.0763 67.1804c.9867 0 1.7865-.7999 1.7865-1.7865 0-.9866-.7998-1.7865-1.7865-1.7865-.9866 0-1.7864.7999-1.7864 1.7865 0 .9866.7998 1.7865 1.7864 1.7865z" fill="#FF5252"/><path d="M37.9858 67.1804c.9866 0 1.7865-.7999 1.7865-1.7865 0-.9866-.7999-1.7865-1.7865-1.7865-.9867 0-1.7865.7999-1.7865 1.7865 0 .9866.7998 1.7865 1.7865 1.7865z" fill="#FF0"/><path d="M42.8986 67.1804c.9866 0 1.7865-.7999 1.7865-1.7865 0-.9866-.7999-1.7865-1.7865-1.7865-.9866 0-1.7865.7999-1.7865 1.7865 0 .9866.7999 1.7865 1.7865 1.7865z" fill="#69F0AE"/><path opacity=".8" d="M280.915 232.149c-14.371 1.09-261.1772.666-269.7996 0C-.19 226.699.0167 205.555.0167 205.555l113.1873-.756.38 6.436h48.435l1.893-5.667h125.433s2.493 19.385-8.43 26.581z" fill="url(#paint1_linear)"/><path d="M287.508 207.258H164.522c.473.548.78 1.221.882 1.938.102.717-.005 1.448-.307 2.107a3.7757 3.7757 0 01-1.397 1.606c-.611.39-1.32.597-2.045.595h-46.954a3.7803 3.7803 0 01-2.045-.595c-.61-.39-1.095-.948-1.397-1.606a3.7792 3.7792 0 01-.307-2.107c.102-.717.408-1.39.882-1.938H1.7031s-.19 18.361 10.9788 23.107c8.5158.567 252.3051.947 266.5001 0 10.802-6.262 8.326-23.107 8.326-23.107z" fill="#F5F5F5"/><path d="M27.257 212.748c.8357 0 1.5131-.678 1.5131-1.514 0-.835-.6774-1.513-1.5131-1.513-.8357 0-1.5132.678-1.5132 1.513 0 .836.6775 1.514 1.5132 1.514zM31.7998 212.748c.8357 0 1.5132-.678 1.5132-1.514 0-.835-.6775-1.513-1.5132-1.513-.8357 0-1.5132.678-1.5132 1.513 0 .836.6775 1.514 1.5132 1.514zM36.3393 212.748c.8357 0 1.5132-.678 1.5132-1.514 0-.835-.6775-1.513-1.5132-1.513-.8357 0-1.5132.678-1.5132 1.513 0 .836.6775 1.514 1.5132 1.514z" fill="#E0E0E0"/><path d="M139.944 125.88h10.729c12.331 0 24.158 4.899 32.877 13.618a46.4943 46.4943 0 0113.618 32.877v33.8H93.4496v-33.8a46.4955 46.4955 0 0113.6184-32.877 46.4944 46.4944 0 0132.876-13.618z" fill="#00BAFC"/><path d="M145.411 107.803c26.179 0 47.401-21.2228 47.401-47.4018 0-26.1791-21.222-47.4014-47.401-47.4014-26.18 0-47.4019 21.2223-47.4019 47.4014 0 26.179 21.2219 47.4018 47.4019 47.4018z" fill="#333"/><path opacity=".1" d="M138.431 112.075h13.709c2.563 0 5.022 1.019 6.834 2.831a9.6665 9.6665 0 012.831 6.835v9.419c0 3.919-1.557 7.678-4.328 10.45a14.782 14.782 0 01-10.45 4.328h-3.496a14.7784 14.7784 0 01-14.779-14.778v-9.406c0-2.563 1.019-5.022 2.831-6.834a9.6647 9.6647 0 016.835-2.831l.013-.014z" fill="#000"/><path d="M128.752 111.109h33.07v19.098c0 3.919-1.557 7.678-4.328 10.45a14.782 14.782 0 01-10.45 4.328h-3.513a14.7784 14.7784 0 01-14.779-14.778v-19.098z" fill="#FDB797"/><path opacity=".1" d="M128.812 115.878a47.592 47.592 0 0033.07.09v-4.059h-33.07v3.969z" fill="#000"/><path d="M145.411 118.091c26.179 0 47.401-21.222 47.401-47.401 0-26.1791-21.222-47.4014-47.401-47.4014-26.18 0-47.4019 21.2223-47.4019 47.4014 0 26.179 21.2219 47.401 47.4019 47.401z" fill="#FDB797"/><path opacity=".1" d="M100.092 53.9119h90.39s-7.716-36.4993-41.889-34.1895c-34.172 2.3097-48.501 34.1895-48.501 34.1895z" fill="#000"/><path d="M100.092 52.6853h90.39s-7.716-36.4993-41.889-34.1729c-34.172 2.3264-48.501 34.1729-48.501 34.1729z" fill="#333"/><path d="M98.989 76.9393c2.435 0 4.409-3.7022 4.409-8.2691s-1.974-8.2691-4.409-8.2691c-2.4353 0-4.4095 3.7022-4.4095 8.2691s1.9742 8.2691 4.4095 8.2691zM191.585 76.9393c2.436 0 4.41-3.7022 4.41-8.2691s-1.974-8.2691-4.41-8.2691c-2.435 0-4.409 3.7022-4.409 8.2691s1.974 8.2691 4.409 8.2691z" fill="#FDB797"/><path d="M107.108 28.5013c1.083-3.5396 3.053-6.9225 6.093-9.0323 2.309-1.6032 5.073-2.3731 7.722-3.313a59.0312 59.0312 0 0011.226-5.3694c4.019-2.4764 7.795-5.4594 12.222-7.0959 7.615-2.8163 16.098-1.2932 23.96.7266 1.937.4966 3.897 1.0366 5.603 2.0831 1.976 1.2099 3.493 3.0297 4.973 4.8128l12.478 15.0517c1.144 1.3765 2.293 2.7697 3.1 4.3695a15.0292 15.0292 0 011.42 4.9295c.333 2.7597.073 5.686-1.333 8.0891-2.11 3.6029-6.46 5.4127-10.629 5.5793-4.17.1667-8.263-1.0432-12.269-2.2164-12.918-3.7829-25.997-7.3092-39.395-8.879a111.13 111.13 0 00-20.048-.6499c-2.1.1366-4.873 1.0999-6.149-1.0399-1.104-1.8565.456-6.186 1.026-8.0458z" fill="#333"/><path opacity=".05" d="M113.754 169.372v36.803M177.694 169.372v36.803" stroke="#000" stroke-width="4" stroke-miterlimit="10"/><path opacity=".8" d="M300 66.7604h-59.48l-20.075 16.7381V66.7604h-13.381V.6111H300v66.1493z" fill="url(#paint2_linear)"/><path d="M298.74 1.3977h-90.416V64.654h90.416V1.3977z" fill="#fff"/><path d="M290.148 10.6965h-71.642v1.8798h71.642v-1.8798zM267.76 19.1624h-49.254v1.8797h49.254v-1.8797zM277.613 27.6248h-59.107v1.8797h59.107v-1.8797z" fill="#E0E0E0"/><path d="M265.97 36.0906h-47.464v1.8798h47.464v-1.8798zM290.148 44.5527h-71.642v1.8798h71.642v-1.8798z" fill="#00BAFC"/><path d="M290.148 53.0186h-71.642v1.8797h71.642v-1.8797z" fill="#E0E0E0"/><path d="M223.792 63.4241v16.7315l18.401-18.4046-18.401 1.6731z" fill="#fff"/></g><defs><linearGradient id="paint0_linear" x1="144.607" y1="221.077" x2="144.607" y2="48.8358" gradientUnits="userSpaceOnUse"><stop stop-color="gray" stop-opacity=".25"/><stop offset=".54" stop-color="gray" stop-opacity=".12"/><stop offset="1" stop-color="gray" stop-opacity=".1"/></linearGradient><linearGradient id="paint1_linear" x1="169221" y1="22572.9" x2="169221" y2="20217.9" gradientUnits="userSpaceOnUse"><stop stop-color="gray" stop-opacity=".25"/><stop offset=".54" stop-color="gray" stop-opacity=".12"/><stop offset="1" stop-color="gray" stop-opacity=".1"/></linearGradient><linearGradient id="paint2_linear" x1="70901.9" y1="20613.9" x2="70901.9" y2=".6111" gradientUnits="userSpaceOnUse"><stop stop-color="gray" stop-opacity=".25"/><stop offset=".54" stop-color="gray" stop-opacity=".12"/><stop offset="1" stop-color="gray" stop-opacity=".1"/></linearGradient><clipPath id="clip0"><path fill="#fff" transform="translate(0 .611)" d="M0 0h300v232.198H0z"/></clipPath></defs></svg>

<svg width="300" height="233" viewBox="0 0 300 233" fill="none" xmlns="http://www.w3.org/2000/svg">
<g clip-path="url(#clip0)">
<g opacity="0.8">
<path opacity="0.8" d="M273.693 221.077H15.5216V54.0952C15.5216 52.6985 16.0765 51.3591 17.064 50.3715C18.0516 49.3839 19.3911 48.8291 20.7877 48.8291H268.427C269.824 48.8291 271.163 49.3839 272.151 50.3715C273.138 51.3591 273.693 52.6985 273.693 54.0952V221.077Z" fill="url(#paint0_linear)"/>
</g>
<path d="M24.3306 51.8621H264.867C266.264 51.8621 267.603 52.4169 268.591 53.4045C269.578 54.392 270.133 55.7315 270.133 57.1281V221.077H19.0779V57.1315C19.077 55.7366 19.6296 54.3983 20.6144 53.4103C21.5992 52.4224 22.9357 51.8656 24.3306 51.8621Z" fill="white"/>
<path d="M262.051 61.7075H27.1603V215.774H262.051V61.7075Z" fill="#F5F5F5"/>
<path opacity="0.8" d="M261.954 69.1868H28.0602V207.798H261.954V69.1868Z" fill="#E0E0E0"/>
<path d="M261.954 61.821H28.0602V69.1869H261.954V61.821Z" fill="#F5F5F5"/>
<path d="M33.0763 67.1804C34.063 67.1804 34.8628 66.3805 34.8628 65.3939C34.8628 64.4073 34.063 63.6074 33.0763 63.6074C32.0897 63.6074 31.2899 64.4073 31.2899 65.3939C31.2899 66.3805 32.0897 67.1804 33.0763 67.1804Z" fill="#FF5252"/>
<path d="M37.9858 67.1804C38.9724 67.1804 39.7723 66.3805 39.7723 65.3939C39.7723 64.4073 38.9724 63.6074 37.9858 63.6074C36.9991 63.6074 36.1993 64.4073 36.1993 65.3939C36.1993 66.3805 36.9991 67.1804 37.9858 67.1804Z" fill="#FFFF00"/>
<path d="M42.8986 67.1804C43.8852 67.1804 44.6851 66.3805 44.6851 65.3939C44.6851 64.4073 43.8852 63.6074 42.8986 63.6074C41.912 63.6074 41.1121 64.4073 41.1121 65.3939C41.1121 66.3805 41.912 67.1804 42.8986 67.1804Z" fill="#69F0AE"/>
<g opacity="0.8">
<path opacity="0.8" d="M280.915 232.149C266.544 233.239 19.7378 232.815 11.1154 232.149C-0.189967 226.699 0.0166755 205.555 0.0166755 205.555L113.204 204.799L113.584 211.235H162.019L163.912 205.568H289.345C289.345 205.568 291.838 224.953 280.915 232.149Z" fill="url(#paint1_linear)"/>
</g>
<path d="M287.508 207.258H164.522C164.995 207.806 165.302 208.479 165.404 209.196C165.506 209.913 165.399 210.644 165.097 211.303C164.795 211.961 164.31 212.519 163.7 212.909C163.089 213.299 162.38 213.506 161.655 213.504H114.701C113.976 213.506 113.267 213.299 112.656 212.909C112.046 212.519 111.561 211.961 111.259 211.303C110.957 210.644 110.85 209.913 110.952 209.196C111.054 208.479 111.36 207.806 111.834 207.258H1.70315C1.70315 207.258 1.51317 225.619 12.6819 230.365C21.1977 230.932 264.987 231.312 279.182 230.365C289.984 224.103 287.508 207.258 287.508 207.258Z" fill="#F5F5F5"/>
<path d="M27.257 212.748C28.0927 212.748 28.7701 212.07 28.7701 211.234C28.7701 210.399 28.0927 209.721 27.257 209.721C26.4213 209.721 25.7438 210.399 25.7438 211.234C25.7438 212.07 26.4213 212.748 27.257 212.748Z" fill="#E0E0E0"/>
<path d="M31.7998 212.748C32.6355 212.748 33.313 212.07 33.313 211.234C33.313 210.399 32.6355 209.721 31.7998 209.721C30.9641 209.721 30.2866 210.399 30.2866 211.234C30.2866 212.07 30.9641 212.748 31.7998 212.748Z" fill="#E0E0E0"/>
<path d="M36.3393 212.748C37.175 212.748 37.8525 212.07 37.8525 211.234C37.8525 210.399 37.175 209.721 36.3393 209.721C35.5036 209.721 34.8261 210.399 34.8261 211.234C34.8261 212.07 35.5036 212.748 36.3393 212.748Z" fill="#E0E0E0"/>
<path d="M139.944 125.88H150.673C163.004 125.88 174.831 130.779 183.55 139.498C192.27 148.218 197.168 160.044 197.168 172.375V206.175H93.4496V172.375C93.4496 160.044 98.3482 148.218 107.068 139.498C115.787 130.779 127.613 125.88 139.944 125.88Z" fill="#00BAFC"/>
<path d="M145.411 107.803C171.59 107.803 192.812 86.5802 192.812 60.4012C192.812 34.2221 171.59 12.9998 145.411 12.9998C119.231 12.9998 98.0091 34.2221 98.0091 60.4012C98.0091 86.5802 119.231 107.803 145.411 107.803Z" fill="#333333"/>
<path opacity="0.1" d="M138.431 112.075H152.14C154.703 112.075 157.162 113.094 158.974 114.906C160.787 116.719 161.805 119.178 161.805 121.741V131.16C161.805 135.079 160.248 138.838 157.477 141.61C154.705 144.381 150.946 145.938 147.027 145.938H143.531C139.611 145.938 135.852 144.381 133.081 141.61C130.309 138.838 128.752 135.079 128.752 131.16V121.754C128.752 119.191 129.771 116.732 131.583 114.92C133.396 113.107 135.854 112.089 138.418 112.089L138.431 112.075Z" fill="black"/>
<path d="M128.752 111.109H161.822V130.207C161.822 134.126 160.265 137.885 157.494 140.657C154.722 143.428 150.963 144.985 147.044 144.985H143.531C139.611 144.985 135.852 143.428 133.081 140.657C130.309 137.885 128.752 134.126 128.752 130.207V111.109Z" fill="#FDB797"/>
<path opacity="0.1" d="M128.812 115.878C139.47 119.86 151.202 119.892 161.882 115.968V111.909H128.812V115.878Z" fill="black"/>
<path d="M145.411 118.091C171.59 118.091 192.812 96.869 192.812 70.69C192.812 44.5109 171.59 23.2886 145.411 23.2886C119.231 23.2886 98.0091 44.5109 98.0091 70.69C98.0091 96.869 119.231 118.091 145.411 118.091Z" fill="#FDB797"/>
<path opacity="0.1" d="M100.092 53.9119H190.482C190.482 53.9119 182.766 17.4126 148.593 19.7224C114.421 22.0321 100.092 53.9119 100.092 53.9119Z" fill="black"/>
<path d="M100.092 52.6853H190.482C190.482 52.6853 182.766 16.186 148.593 18.5124C114.421 20.8388 100.092 52.6853 100.092 52.6853Z" fill="#333333"/>
<path d="M98.989 76.9393C101.424 76.9393 103.398 73.2371 103.398 68.6702C103.398 64.1033 101.424 60.4011 98.989 60.4011C96.5537 60.4011 94.5795 64.1033 94.5795 68.6702C94.5795 73.2371 96.5537 76.9393 98.989 76.9393Z" fill="#FDB797"/>
<path d="M191.585 76.9393C194.021 76.9393 195.995 73.2371 195.995 68.6702C195.995 64.1033 194.021 60.4011 191.585 60.4011C189.15 60.4011 187.176 64.1033 187.176 68.6702C187.176 73.2371 189.15 76.9393 191.585 76.9393Z" fill="#FDB797"/>
<path d="M107.108 28.5013C108.191 24.9617 110.161 21.5788 113.201 19.469C115.51 17.8658 118.274 17.0959 120.923 16.156C124.844 14.7668 128.606 12.967 132.149 10.7866C136.168 8.31023 139.944 5.32723 144.371 3.69074C151.986 0.874388 160.469 2.39755 168.331 4.41733C170.268 4.91394 172.228 5.45388 173.934 6.50043C175.91 7.7103 177.427 9.53009 178.907 11.3132L191.385 26.3649C192.529 27.7414 193.678 29.1346 194.485 30.7344C195.237 32.284 195.718 33.9515 195.905 35.6639C196.238 38.4236 195.978 41.3499 194.572 43.753C192.462 47.3559 188.112 49.1657 183.943 49.3323C179.773 49.499 175.68 48.2891 171.674 47.1159C158.756 43.333 145.677 39.8067 132.279 38.2369C125.629 37.4164 118.919 37.1988 112.231 37.587C110.131 37.7236 107.358 38.6869 106.082 36.5471C104.978 34.6906 106.538 30.3611 107.108 28.5013Z" fill="#333333"/>
<path opacity="0.05" d="M113.754 169.372V206.175" stroke="black" stroke-width="4" stroke-miterlimit="10"/>
<path opacity="0.05" d="M177.694 169.372V206.175" stroke="black" stroke-width="4" stroke-miterlimit="10"/>
<g opacity="0.8">
<path opacity="0.8" d="M300 66.7604H240.52L220.445 83.4985V66.7604H207.064V0.611084H300V66.7604Z" fill="url(#paint2_linear)"/>
</g>
<path d="M298.74 1.39771H208.324V64.654H298.74V1.39771Z" fill="white"/>
<path d="M290.148 10.6965H218.506V12.5763H290.148V10.6965Z" fill="#E0E0E0"/>
<path d="M267.76 19.1624H218.506V21.0421H267.76V19.1624Z" fill="#E0E0E0"/>
<path d="M277.613 27.6248H218.506V29.5045H277.613V27.6248Z" fill="#E0E0E0"/>
<path d="M265.97 36.0906H218.506V37.9704H265.97V36.0906Z" fill="#00BAFC"/>
<path d="M290.148 44.5527H218.506V46.4325H290.148V44.5527Z" fill="#00BAFC"/>
<path d="M290.148 53.0186H218.506V54.8983H290.148V53.0186Z" fill="#E0E0E0"/>
<path d="M223.792 63.4241V80.1556L242.193 61.751L223.792 63.4241Z" fill="white"/>
</g>
<defs>
<linearGradient id="paint0_linear" x1="144.607" y1="221.077" x2="144.607" y2="48.8358" gradientUnits="userSpaceOnUse">
<stop stop-color="#808080" stop-opacity="0.25"/>
<stop offset="0.54" stop-color="#808080" stop-opacity="0.12"/>
<stop offset="1" stop-color="#808080" stop-opacity="0.1"/>
</linearGradient>
<linearGradient id="paint1_linear" x1="169221" y1="22572.9" x2="169221" y2="20217.9" gradientUnits="userSpaceOnUse">
<stop stop-color="#808080" stop-opacity="0.25"/>
<stop offset="0.54" stop-color="#808080" stop-opacity="0.12"/>
<stop offset="1" stop-color="#808080" stop-opacity="0.1"/>
</linearGradient>
<linearGradient id="paint2_linear" x1="70901.9" y1="20613.9" x2="70901.9" y2="0.611084" gradientUnits="userSpaceOnUse">
<stop stop-color="#808080" stop-opacity="0.25"/>
<stop offset="0.54" stop-color="#808080" stop-opacity="0.12"/>
<stop offset="1" stop-color="#808080" stop-opacity="0.1"/>
</linearGradient>
<clipPath id="clip0">
<rect width="300" height="232.198" fill="white" transform="translate(0 0.611084)"/>
</clipPath>
</defs>
</svg>
